app/client/src/assets/icons/blueprintjs/16px/clip.svg

<svg width="16" height="16" viewBox="0 0 16 16" xmlns="http://www.w3.org/2000/svg">
<path fill-rule="evenodd" clip-rule="evenodd" d="M0 1C0 0.447715 0.447715 0 1 0H5C5.55228 0 6 0.447715 6 1C6 1.55228 5.55228 2 5 2H2V5C2 5.55228 1.55228 6 1 6C0.447715 6 0 5.55228 0 5V1ZM1 16C0.447715 16 0 15.5523 0 15V11C0 10.4477 0.447715 10 1 10C1.55228 10 2 10.4477 2 11V14H5C5.55228 14 6 14.4477 6 15C6 15.5523 5.55228 16 5 16H1ZM15 16C15.5523 16 16 15.5523 16 15V11C16 10.4477 15.5523 10 15 10C14.4477 10 14 10.4477 14 11V14H11C10.4477 14 10 14.4477 10 15C10 15.5523 10.4477 16 11 16H15ZM15 0C15.5523 0 16 0.447715 16 1V5C16 5.55228 15.5523 6 15 6C14.4477 6 14 5.55228 14 5V2H11C10.4477 2 10 1.55228 10 1C10 0.447715 10.4477 0 11 0H15ZM8 11C9.65685 11 11 9.65685 11 8C11 6.34315 9.65685 5 8 5C6.34315 5 5 6.34315 5 8C5 9.65685 6.34315 11 8 11Z" />
</svg>

<svg xmlns="http://www.w3.org/2000/svg" width="16" height="16"><path fill-rule="evenodd" d="M0 1a1 1 0 0 1 1-1h4a1 1 0 0 1 0 2H2v3a1 1 0 0 1-2 0V1Zm1 15a1 1 0 0 1-1-1v-4a1 1 0 1 1 2 0v3h3a1 1 0 1 1 0 2H1Zm14 0a1 1 0 0 0 1-1v-4a1 1 0 1 0-2 0v3h-3a1 1 0 1 0 0 2h4Zm0-16a1 1 0 0 1 1 1v4a1 1 0 1 1-2 0V2h-3a1 1 0 1 1 0-2h4ZM8 11a3 3 0 1 0 0-6 3 3 0 0 0 0 6Z" clip-rule="evenodd"/></svg>
